X:2806
T:Mairi's Fancy
P:Mrs Findlay of Haywood
C:Kohler
R:Strathspey (8x32)
B:RSCDS 28-6
Z:Anselm Lingnau <anselm@strathspey.org>
M:C
L:1/8
K:D
A,|"D"D<D F>A d>e f>a|"Em"g>f e>d "A"(3cBA "A7"(3GFE|\
   "D"D<D F>A d>e f>a|
                      "G"g/f/e/d/ "A"c/d/e/g/ "D"f<dd>A|\
   "D"D<D F>A d>e f>a|"Em"g>f e>d "A"(3Bcd (3cBA|
   "G"(3BGB (3dcB "F#m"(3cAf "G"(3gfe|"A"(3Bcd (3efg "D"f<dd||\
f|"D"a>f d>B A>F D>F|
                     "Em"G<B e>g "A"g/f/e/d/ c/B/A/G/|\
  "D"F<DA>F "Em"G<Ee>f|"A"(3gfe (3cde "D"f<dd>f|
  "D"a>f d>B A>F D>F|"Em"G>B e>g "A"g/f/e/d/ c/B/A/G/|\
  "D"F<DA>F "Em"G<Ee>d|"A"(3cBA "A7"(3GFE "D"F<DD|]

